humanity-icon-theme/Humanity/actions/48/document-revert.svg

<?xml version="1.0" encoding="UTF-8" standalone="no"?>
<!-- Created with Inkscape (http://www.inkscape.org/) -->

<svg
   xmlns:svg="http://www.w3.org/2000/svg"
   xmlns="http://www.w3.org/2000/svg"
   xmlns:xlink="http://www.w3.org/1999/xlink"
   version="1.1"
   width="48"
   height="48"
   id="svg3858">
  <defs
     id="defs3860">
    <linearGradient
       id="linearGradient8589">
      <stop
         id="stop8591"
         style="stop-color:#fefefe;stop-opacity:1"
         offset="0" />
      <stop
         id="stop8593"
         style="stop-color:#cbcbcb;stop-opacity:1"
         offset="1" />
    </linearGradient>
    <linearGradient
       x1="32.892288"
       y1="8.0590115"
       x2="36.358372"
       y2="5.4565363"
       id="linearGradient5573"
       xlink:href="#linearGradient8589"
       gradientUnits="userSpaceOnUse"
       gradientTransform="matrix(0.9976985,0,0,1.0642049,79.92444,11.281007)" />
    <linearGradient
       id="linearGradient3931">
      <stop
         id="stop3933"
         style="stop-color:#8d8f8a;stop-opacity:1"
         offset="0" />
      <stop
         id="stop3935"
         style="stop-color:#cbcbcb;stop-opacity:1"
         offset="1" />
    </linearGradient>
    <linearGradient
       x1="-51.786404"
       y1="50.786446"
       x2="-51.786404"
       y2="2.9062471"
       id="linearGradient5571"
       xlink:href="#linearGradient3931"
       gradientUnits="userSpaceOnUse"
       gradientTransform="matrix(0.8074968,0,0,0.9358511,139.17087,6.3057874)" />
    <linearGradient
       id="linearGradient3600">
      <stop
         id="stop3602"
         style="stop-color:#f4f4f4;stop-opacity:1"
         offset="0" />
      <stop
         id="stop3604"
         style="stop-color:#dbdbdb;stop-opacity:1"
         offset="1" />
    </linearGradient>
    <linearGradient
       x1="25.132275"
       y1="6.7287393"
       x2="25.132275"
       y2="47.013336"
       id="linearGradient5569"
       xlink:href="#linearGradient3600"
       gradientUnits="userSpaceOnUse"
       gradientTransform="translate(79.76064,7.4202674)" />
    <radialGradient
       cx="605.71429"
       cy="486.64789"
       r="117.14286"
       fx="605.71429"
       fy="486.64789"
       id="radialGradient5567"
       xlink:href="#linearGradient5060"
       gradientUnits="userSpaceOnUse"
       gradientTransform="matrix(0.02409717,0,0,0.01537476,26.477584,38.629039)" />
    <linearGradient
       id="linearGradient5060">
      <stop
         id="stop5062"
         style="stop-color:#000000;stop-opacity:1"
         offset="0" />
      <stop
         id="stop5064"
         style="stop-color:#000000;stop-opacity:0"
         offset="1" />
    </linearGradient>
    <radialGradient
       cx="605.71429"
       cy="486.64789"
       r="117.14286"
       fx="605.71429"
       fy="486.64789"
       id="radialGradient5565"
       xlink:href="#linearGradient5060"
       gradientUnits="userSpaceOnUse"
       gradientTransform="matrix(-0.02409717,0,0,0.01537476,21.522412,38.629039)" />
    <linearGradient
       id="linearGradient5048">
      <stop
         id="stop5050"
         style="stop-color:#000000;stop-opacity:0"
         offset="0" />
      <stop
         id="stop5056"
         style="stop-color:#000000;stop-opacity:1"
         offset="0.5" />
      <stop
         id="stop5052"
         style="stop-color:#000000;stop-opacity:0"
         offset="1" />
    </linearGradient>
    <linearGradient
       x1="302.85715"
       y1="366.64789"
       x2="302.85715"
       y2="609.50507"
       id="linearGradient5563"
       xlink:href="#linearGradient5048"
       gradientUnits="userSpaceOnUse"
       gradientTransform="matrix(0.0704142,0,0,0.01537476,-1.4497047,38.629007)" />
    <linearGradient
       id="linearGradient4873">
      <stop
         id="stop4875"
         style="stop-color:#ffffff;stop-opacity:1"
         offset="0" />
      <stop
         id="stop4877"
         style="stop-color:#ffffff;stop-opacity:0"
         offset="1" />
    </linearGradient>
    <linearGradient
       x1="21.628975"
       y1="2.1102102"
       x2="22.245434"
       y2="43.366352"
       id="linearGradient2509"
       xlink:href="#linearGradient4873"
       gradientUnits="userSpaceOnUse"
       gradientTransform="matrix(0.4873978,0,0,0.4781595,-11.889561,1.7007118)" />
    <linearGradient
       id="linearGradient3533">
      <stop
         id="stop3535"
         style="stop-color:#93b9dd;stop-opacity:1"
         offset="0" />
      <stop
         id="stop3545"
         style="stop-color:#6396cd;stop-opacity:1"
         offset="1" />
    </linearGradient>
    <linearGradient
       x1="15.372947"
       y1="5.0471625"
       x2="15.372947"
       y2="22.599676"
       id="linearGradient2517"
       xlink:href="#linearGradient3533"
       gradientUnits="userSpaceOnUse"
       gradientTransform="matrix(0.4873978,0,0,0.4781595,-11.889561,1.7007118)" />
  </defs>
  <g
     id="layer1">
    <g
       transform="translate(-79.76064,-9.420269)"
       id="g5516"
       style="display:inline">
      <g
         transform="matrix(0.80159266,0,0,0.9561265,87.149491,9.5261974)"
         id="g2877">
        <rect
           width="34"
           height="3.7338707"
           x="7"
           y="44.266129"
           id="rect2879"
           style="opacity:0.40206185;fill:url(#linearGradient5563);fill-opacity:1;fill-rule:nonzero;stroke:none;stroke-width:1;marker:none;visibility:visible;display:inline;overflow:visible" />
        <path
           d="m 7,44.266291 c 0,0 0,3.733665 0,3.733665 -1.2409448,0.007 -3,-0.836525 -3,-1.867073 0,-1.030547 1.3848007,-1.866591 3,-1.866592 z"
           id="path2881"
           style="opacity:0.40206185;fill:url(#radialGradient5565);fill-opacity:1;fill-rule:nonzero;stroke:none;stroke-width:1;marker:none;visibility:visible;display:inline;overflow:visible" />
        <path
           d="m 41,44.266291 c 0,0 0,3.733665 0,3.733665 1.240944,0.007 3,-0.836525 3,-1.867073 0,-1.030547 -1.384801,-1.866591 -3,-1.866592 z"
           id="path2883"
           style="opacity:0.40206185;fill:url(#radialGradient5567);fill-opacity:1;fill-rule:nonzero;stroke:none;stroke-width:1;marker:none;visibility:visible;display:inline;overflow:visible" />
      </g>
      <path
         d="m 90.26064,12.920227 c 8.02029,0 12.04055,0 20.06084,0 1.40694,0.48538 8.96546,6.01514 10.9392,9.84396 0,11.7187 0,19.43741 0,31.15612 -11.66669,0 -19.33335,0 -31.00004,0 0,-15.00003 0,-26.00005 0,-41.00008 z"
         id="rect2594"
         style="fill:url(#linearGradient5569);fill-opacity:1;stroke:url(#linearGradient5571);stroke-width:0.9999218;stroke-linecap:butt;stroke-linejoin:round;stroke-miterlimit:4;stroke-opacity:1;stroke-dasharray:none;stroke-dashoffset:0" />
      <path
         d="m 109.52818,13.234887 c 0.6375,4.12506 0.60946,9.03447 0.60946,9.03447 0,0 4.86973,-0.1115 10.88525,0.59393 -4.89688,-4.7878 -8.32845,-6.78418 -11.49471,-9.6284 z"
         id="path8596"
         style="fill:#000000;fill-opacity:0.32663317;fill-rule:evenodd;stroke:#000000;stroke-width:0.5;stroke-linecap:butt;stroke-linejoin:round;stroke-miterlimit:4;stroke-opacity:0.16582917;stroke-dasharray:none;display:inline" />
      <path
         d="m 109.41856,12.928197 c 1.41222,4.1225 1.29509,8.2607 1.29509,8.2607 0,0 7.833,0.54731 10.17514,1.59393 0,-1.71114 -9.2975,-9.82542 -11.47023,-9.85463 z"
         id="path12038"
         style="fill:url(#linearGradient5573);fill-opacity:1;fill-rule:evenodd;stroke:none;display:inline" />
    </g>
    <rect
       width="24"
       height="1.0000001"
       rx="0.42857143"
       ry="0.50000006"
       x="14"
       y="18"
       id="rect2874"
       style="fill:#babdb6;fill-opacity:1;stroke:none;display:inline" />
    <rect
       width="24"
       height="1.0000001"
       rx="0.42857143"
       ry="0.50000006"
       x="14"
       y="21"
       id="rect2890"
       style="fill:#babdb6;fill-opacity:1;stroke:none;display:inline" />
    <rect
       width="24"
       height="1.0000001"
       rx="0.42857143"
       ry="0.50000006"
       x="14"
       y="24"
       id="rect2892"
       style="fill:#babdb6;fill-opacity:1;stroke:none;display:inline" />
    <rect
       width="24"
       height="1.0000001"
       rx="0.42857143"
       ry="0.50000006"
       x="14"
       y="30.000002"
       id="rect2894"
       style="fill:#babdb6;fill-opacity:1;stroke:none;display:inline" />
    <rect
       width="24"
       height="1.0000001"
       rx="0.42857143"
       ry="0.50000006"
       x="14"
       y="33"
       id="rect2898"
       style="fill:#babdb6;fill-opacity:1;stroke:none;display:inline" />
    <rect
       width="24"
       height="1.0000001"
       rx="0.42857143"
       ry="0.50000006"
       x="14"
       y="36"
       id="rect2900"
       style="fill:#babdb6;fill-opacity:1;stroke:none;display:inline" />
    <rect
       width="24"
       height="1.0000001"
       rx="0.42857143"
       ry="0.50000006"
       x="14"
       y="27"
       id="rect1984"
       style="fill:#babdb6;fill-opacity:1;stroke:none;display:inline" />
    <g
       transform="matrix(1.1304349,0,0,1.1390111,15.031659,10.663733)"
       id="g3917"
       style="display:inline">
      <g
         transform="translate(-1.5907386,-1.0136892)"
         id="g3919"
         style="display:inline" />
      <g
         transform="translate(-70.604705,-2.1799939)"
         id="g2630"
         style="display:inline" />
      <g
         id="g3922" />
      <g
         transform="matrix(0.9248169,0,0,0.9248169,-221.70753,13.0581)"
         id="g3924" />
      <g
         transform="matrix(0.9248169,0,0,0.9248169,-221.70753,13.0581)"
         id="g3926"
         style="display:inline" />
      <g
         transform="matrix(0.9248169,0,0,0.9248169,-270.77652,-10.260991)"
         id="g3933" />
      <g
         transform="matrix(0.9248169,0,0,0.9248169,-236.49197,13.317533)"
         id="g3938" />
      <g
         transform="matrix(0.9248169,0,0,0.9248169,-236.49197,13.317533)"
         id="g3940"
         style="display:inline" />
      <g
         transform="matrix(0.9248169,0,0,0.9248169,-285.56096,-10.001558)"
         id="g3942" />
      <g
         transform="matrix(0.9248169,0,0,0.9248169,-220.44778,16.571925)"
         id="g3944" />
      <g
         transform="matrix(0.9248169,0,0,0.9248169,-220.44778,16.571925)"
         id="g3951"
         style="display:inline" />
      <g
         transform="matrix(0.9248169,0,0,0.9248169,-269.51677,-6.7471662)"
         id="g3955" />
      <g
         transform="matrix(0.9248169,0,0,0.9248169,-335.99732,22.698689)"
         id="g3968" />
      <g
         transform="matrix(0.9248169,0,0,0.9248169,-335.99732,22.698689)"
         id="g3977"
         style="display:inline" />
      <g
         transform="matrix(0.9248169,0,0,0.9248169,-385.06631,-0.6204021)"
         id="g3983" />
      <g
         transform="matrix(0.9248169,0,0,0.9248169,-278.60865,-29.839987)"
         id="g3985" />
      <g
         transform="matrix(0.9248169,0,0,0.9248169,-278.60865,-29.839987)"
         id="g3987"
         style="display:inline" />
      <g
         transform="matrix(0.9248169,0,0,0.9248169,-397.47554,-3.4577368)"
         id="g3989" />
      <g
         transform="matrix(0.9248169,0,0,0.9248169,-397.47554,-3.4577368)"
         id="g3991" />
      <g
         transform="matrix(0.9248169,0,0,0.9248169,-397.47554,-3.4577368)"
         id="g2558" />
      <g
         transform="matrix(0.9248169,0,0,0.9248169,-470.53387,-11.184438)"
         id="g4003"
         style="display:inline" />
      <g
         transform="matrix(0.9248169,0,0,0.9248169,-470.53387,-11.184438)"
         id="g4005" />
      <g
         transform="matrix(0.9248169,0,0,0.9248169,-470.53387,-11.184438)"
         id="g4007"
         style="display:inline" />
      <g
         transform="matrix(0.9248169,0,0,0.9248169,-325.77755,-2.9465341)"
         id="g4009" />
      <g
         transform="matrix(0.9248169,0,0,0.9248169,-170.10432,1.9182516)"
         id="g4011" />
      <g
         transform="matrix(0.9248169,0,0,0.9248169,-497.66484,-35.271408)"
         id="g4013" />
      <g
         transform="matrix(0.9248169,0,0,0.9248169,-497.66484,-35.271408)"
         id="g4015"
         style="display:inline" />
      <g
         transform="matrix(0.9248169,0,0,0.9248169,-497.66484,-35.271408)"
         id="g4017" />
      <g
         transform="matrix(0.9248169,0,0,0.9248169,-468.59127,-22.101001)"
         id="g4019"
         style="display:inline" />
      <g
         transform="matrix(0.9248169,0,0,0.9248169,-468.59127,-22.101001)"
         id="g4026" />
      <g
         transform="matrix(0.9248169,0,0,0.9248169,-468.59127,-22.101001)"
         id="g4028"
         style="display:inline" />
      <g
         transform="matrix(0.9248169,0,0,0.9248169,-323.83495,-13.863096)"
         id="g4030" />
      <g
         transform="matrix(0.9248169,0,0,0.9248169,-168.16172,-8.9983112)"
         id="g4032" />
      <g
         transform="matrix(0.9248169,0,0,0.9248169,-495.72225,-46.187971)"
         id="g4036" />
      <g
         transform="matrix(0.9248169,0,0,0.9248169,-495.72225,-46.187971)"
         id="g4038"
         style="display:inline" />
      <g
         transform="matrix(0.9248169,0,0,0.9248169,-495.72225,-46.187971)"
         id="g4040" />
      <g
         transform="matrix(0.9248169,0,0,0.9248169,-535.8485,3.0487265)"
         id="g4042" />
      <g
         transform="matrix(0.9248169,0,0,0.9248169,-535.8485,3.0487265)"
         id="g4044"
         style="display:inline" />
      <g
         transform="matrix(0.9248169,0,0,0.9248169,-584.91749,-20.270364)"
         id="g4046" />
      <g
         transform="matrix(0.9248169,0,0,0.9248169,-271.28964,-4.822798)"
         id="g4048" />
      <g
         transform="matrix(0.9248169,0,0,0.9248169,-271.28964,-4.822798)"
         id="g4050"
         style="display:inline" />
      <g
         transform="matrix(0.9248169,0,0,0.9248169,-390.15653,21.559457)"
         id="g4052" />
      <g
         transform="matrix(0.9248169,0,0,0.9248169,-390.15653,21.559457)"
         id="g4054" />
      <g
         transform="matrix(0.9248169,0,0,0.9248169,-390.15653,21.559457)"
         id="g4056" />
      <g
         transform="matrix(0.9248169,0,0,0.9248169,-463.21486,13.832751)"
         id="g4060"
         style="display:inline" />
      <g
         transform="matrix(0.9248169,0,0,0.9248169,-463.21486,13.832751)"
         id="g4062" />
      <g
         transform="matrix(0.9248169,0,0,0.9248169,-463.21486,13.832751)"
         id="g4064"
         style="display:inline" />
      <g
         transform="matrix(0.9248169,0,0,0.9248169,-318.45854,22.070659)"
         id="g4066" />
      <g
         transform="matrix(0.9248169,0,0,0.9248169,-162.78531,26.935445)"
         id="g4068" />
      <g
         transform="matrix(0.9248169,0,0,0.9248169,-490.34583,-10.254218)"
         id="g4070" />
      <g
         transform="matrix(0.9248169,0,0,0.9248169,-490.34583,-10.254218)"
         id="g4072"
         style="display:inline" />
      <g
         transform="matrix(0.9248169,0,0,0.9248169,-490.34583,-10.254218)"
         id="g4074" />
      <g
         transform="matrix(0.9248169,0,0,0.9248169,-461.27226,2.9161882)"
         id="g4076"
         style="display:inline" />
      <g
         transform="matrix(0.9248169,0,0,0.9248169,-461.27226,2.9161882)"
         id="g4078" />
      <g
         transform="matrix(0.9248169,0,0,0.9248169,-461.27226,2.9161882)"
         id="g4080"
         style="display:inline" />
      <g
         transform="matrix(0.9248169,0,0,0.9248169,-316.51594,11.154093)"
         id="g4082" />
      <g
         transform="matrix(0.9248169,0,0,0.9248169,-160.84271,16.018879)"
         id="g4084" />
      <g
         transform="matrix(0.9248169,0,0,0.9248169,-488.40324,-21.170781)"
         id="g4086" />
      <g
         transform="matrix(0.9248169,0,0,0.9248169,-488.40324,-21.170781)"
         id="g4088"
         style="display:inline" />
      <g
         transform="matrix(0.9248169,0,0,0.9248169,-488.40324,-21.170781)"
         id="g4090" />
      <path
         d="M -4.0925564,14.636123 C -4.5408031,13.9861 -4.5766563,13.613737 -4.5766563,12.39285 c 0,-2.101377 1.5785136,-4.5955382 4.64279586,-4.722901 0.9147655,-0.038021 2.76623324,0.6191452 3.73061024,2.502149 l -2.6813644,3.083811 10.7989146,0 c 0,0 0,-10.755909 0,-10.755909 L 9.2438532,5.2189568 C 7.8366367,2.8137235 3.3917411,0.76691316 0.59666622,0.74289705 -6.5490392,0.68149905 -11.481986,6.1164657 -11.058261,12.925521 c -0.007,4.261569 3.4589975,8.392603 7.0937605,9.84185"
         id="path3372"
         style="fill:url(#linearGradient2517);fill-opacity:1;stroke:#538ec6;stroke-width:0.88546264;stroke-linecap:butt;stroke-linejoin:round;stroke-miterlimit:4;stroke-opacity:1;stroke-dasharray:none" />
      <path
         d="M -3.72378,16.384197 C -4.7263882,15.39201 -5.3265638,14.010335 -5.3846142,12.437791 -5.4844216,9.734078 -3.8432711,6.9631243 -0.19779168,6.809679 1.1662723,6.752263 4.0442689,7.5588383 4.9762361,10.327508 l -1.6727394,1.928401 7.7261883,0 c 0,0 0,-7.3783714 0,-7.3783714 L 9.2541341,6.4764165 C 7.2505766,3.2413235 3.0479976,1.7562782 0.21985898,1.6648914 -5.758132,1.4717221 -10.247058,6.3456444 -10.149741,12.882344 c -0.03368,3.753032 3.0896726,7.647671 6.1235252,8.952533"
         id="path3370"
         style="opacity:0.4;fill:none;stroke:url(#linearGradient2509);stroke-width:0.88546264;stroke-linecap:butt;stroke-linejoin:miter;stroke-miterlimit:4;stroke-opacity:1;stroke-dasharray:none" />
    </g>
  </g>
</svg>

<?xml version="1.0" encoding="UTF-8" standalone="no"?>
<!-- Created with Inkscape (http://www.inkscape.org/) -->
<svg id="svg3858" xmlns="http://www.w3.org/2000/svg" height="48" width="48" version="1.1" xmlns:xlink="http://www.w3.org/1999/xlink">
 <defs id="defs3860">
  <linearGradient id="linearGradient5573" y2="5.4565" gradientUnits="userSpaceOnUse" x2="36.358" gradientTransform="matrix(.99770 0 0 1.0642 79.924 11.281)" y1="8.059" x1="32.892">
   <stop id="stop8591" style="stop-color:#fefefe" offset="0"/>
   <stop id="stop8593" style="stop-color:#cbcbcb" offset="1"/>
  </linearGradient>
  <linearGradient id="linearGradient5571" y2="2.9062" gradientUnits="userSpaceOnUse" x2="-51.786" gradientTransform="matrix(.80750 0 0 .93585 139.17 6.3058)" y1="50.786" x1="-51.786">
   <stop id="stop3933" style="stop-color:#8d8f8a" offset="0"/>
   <stop id="stop3935" style="stop-color:#cbcbcb" offset="1"/>
  </linearGradient>
  <linearGradient id="linearGradient5569" y2="47.013" gradientUnits="userSpaceOnUse" x2="25.132" gradientTransform="translate(79.761 7.4203)" y1="6.7287" x1="25.132">
   <stop id="stop3602" style="stop-color:#f4f4f4" offset="0"/>
   <stop id="stop3604" style="stop-color:#dbdbdb" offset="1"/>
  </linearGradient>
  <radialGradient id="radialGradient5567" xlink:href="#linearGradient5060" gradientUnits="userSpaceOnUse" cy="486.65" cx="605.71" gradientTransform="matrix(.024097 0 0 .015375 26.478 38.629)" r="117.14"/>
  <linearGradient id="linearGradient5060">
   <stop id="stop5062" offset="0"/>
   <stop id="stop5064" style="stop-opacity:0" offset="1"/>
  </linearGradient>
  <radialGradient id="radialGradient5565" xlink:href="#linearGradient5060" gradientUnits="userSpaceOnUse" cy="486.65" cx="605.71" gradientTransform="matrix(-.024097 0 0 .015375 21.522 38.629)" r="117.14"/>
  <linearGradient id="linearGradient5563" y2="609.51" gradientUnits="userSpaceOnUse" x2="302.86" gradientTransform="matrix(.070414 0 0 .015375 -1.4497 38.629)" y1="366.65" x1="302.86">
   <stop id="stop5050" style="stop-opacity:0" offset="0"/>
   <stop id="stop5056" offset=".5"/>
   <stop id="stop5052" style="stop-opacity:0" offset="1"/>
  </linearGradient>
  <linearGradient id="linearGradient2509" y2="43.366" gradientUnits="userSpaceOnUse" x2="22.245" gradientTransform="matrix(.48740 0 0 .47816 -11.89 1.7007)" y1="2.1102" x1="21.629">
   <stop id="stop4875" style="stop-color:#fff" offset="0"/>
   <stop id="stop4877" style="stop-color:#fff;stop-opacity:0" offset="1"/>
  </linearGradient>
  <linearGradient id="linearGradient2517" y2="22.6" gradientUnits="userSpaceOnUse" x2="15.373" gradientTransform="matrix(.48740 0 0 .47816 -11.89 1.7007)" y1="5.0472" x1="15.373">
   <stop id="stop3535" style="stop-color:#93b9dd" offset="0"/>
   <stop id="stop3545" style="stop-color:#6396cd" offset="1"/>
  </linearGradient>
 </defs>
 <g id="layer1">
  <g id="g5516" transform="translate(-79.761 -9.4203)">
   <g id="g2877" transform="matrix(.80159 0 0 .95613 87.149 9.5262)">
    <rect id="rect2879" style="opacity:.40206;fill:url(#linearGradient5563)" height="3.7339" width="34" y="44.266" x="7"/>
    <path id="path2881" style="opacity:.40206;fill:url(#radialGradient5565)" d="m7 44.266v3.7337c-1.2409 0.007-3-0.83652-3-1.8671 0-1.0305 1.3848-1.8666 3-1.8666z"/>
    <path id="path2883" style="opacity:.40206;fill:url(#radialGradient5567)" d="m41 44.266v3.7337c1.2409 0.007 3-0.83652 3-1.8671 0-1.0305-1.3848-1.8666-3-1.8666z"/>
   </g>
   <path id="rect2594" style="stroke-linejoin:round;stroke:url(#linearGradient5571);stroke-width:.99992;fill:url(#linearGradient5569)" d="m90.261 12.92h20.061c1.4069 0.48538 8.9655 6.0151 10.939 9.844v31.156h-31v-41z"/>
   <path id="path8596" style="stroke-linejoin:round;stroke-opacity:.16583;fill-opacity:.32663;fill-rule:evenodd;stroke:#000;stroke-width:.5" d="m109.53 13.235c0.6375 4.1251 0.60946 9.0345 0.60946 9.0345s4.8697-0.1115 10.885 0.59393c-4.8969-4.7878-8.3284-6.7842-11.495-9.6284z"/>
   <path id="path12038" style="fill:url(#linearGradient5573);fill-rule:evenodd" d="m109.42 12.928c1.4122 4.1225 1.2951 8.2607 1.2951 8.2607s7.833 0.54731 10.175 1.5939c0-1.7111-9.2975-9.8254-11.47-9.8546z"/>
  </g>
  <rect id="rect2874" style="fill:#babdb6" rx=".42857" ry="0.5" height="1" width="24" y="18" x="14"/>
  <rect id="rect2890" style="fill:#babdb6" rx=".42857" ry="0.5" height="1" width="24" y="21" x="14"/>
  <rect id="rect2892" style="fill:#babdb6" rx=".42857" ry="0.5" height="1" width="24" y="24" x="14"/>
  <rect id="rect2894" style="fill:#babdb6" rx=".42857" ry="0.5" height="1" width="24" y="30" x="14"/>
  <rect id="rect2898" style="fill:#babdb6" rx=".42857" ry="0.5" height="1" width="24" y="33" x="14"/>
  <rect id="rect2900" style="fill:#babdb6" rx=".42857" ry="0.5" height="1" width="24" y="36" x="14"/>
  <rect id="rect1984" style="fill:#babdb6" rx=".42857" ry="0.5" height="1" width="24" y="27" x="14"/>
  <g id="g3917" transform="matrix(1.1304 0 0 1.139 15.032 10.664)">
   <path id="path3372" style="stroke-linejoin:round;stroke:#538ec6;stroke-width:.88546;fill:url(#linearGradient2517)" d="m-4.0926 14.636c-0.4482-0.65-0.4841-1.022-0.4841-2.243 0-2.1014 1.5785-4.5955 4.6428-4.7229 0.91477-0.038021 2.7662 0.61915 3.7306 2.5021l-2.6814 3.0838h10.799v-10.756l-2.6701 2.719c-1.4073-2.4053-5.8522-4.4521-8.6472-4.4761-7.1457-0.0614-12.079 5.3736-11.655 12.183-0.007 4.2616 3.459 8.3926 7.0938 9.8418"/>
   <path id="path3370" style="opacity:.4;stroke:url(#linearGradient2509);stroke-width:.88546;fill:none" d="m-3.7238 16.384c-1.0026-0.992-1.6028-2.374-1.6608-3.946-0.0998-2.7039 1.5413-5.4749 5.1868-5.6283 1.3641-0.0574 4.2421 0.7491 5.174 3.5183l-1.6727 1.9284h7.7262v-7.3784l-1.7759 1.5988c-2.0035-3.2351-6.2061-4.7201-9.0342-4.8115-5.978-0.1932-10.467 4.6807-10.37 11.217-0.03368 3.753 3.0897 7.6477 6.1235 8.9525"/>
  </g>
 </g>
</svg>
